formula/Legendre2.svg

<svg xmlns="http://www.w3.org/2000/svg" xmlns:xlink="http://www.w3.org/1999/xlink" style="vertical-align:-.755ex" width="59.031ex" height="2.634ex" viewBox="0 -809.3 25416.2 1134.2"><defs><path id="a" stroke-width="1" d="M56 347q0 13 14 20h637q15-8 15-20 0-11-14-19l-318-1H72q-16 5-16 20zm0-194q0 15 16 20h636q14-10 14-20 0-13-15-20H70q-14 7-14 20z"/><path id="b" stroke-width="1" d="M94 250q0 69 10 131t23 107 37 88 38 67 42 52 33 34 25 21h17q14 0 14-9 0-3-17-21t-41-53-49-86-42-138-17-193 17-192 41-139 49-86 42-53 17-21q0-9-15-9h-16l-28 24q-94 85-137 212T94 250z"/><path id="c" stroke-width="1" d="M21 287q1 6 3 16t12 38 20 47 33 37 46 17q36 0 60-18t30-34 6-21q0-2 1-2l11 11q61 64 139 64 54 0 87-27t34-79-38-157-38-127q0-26 17-26 6 0 9 1 29 5 52 38t35 80q2 8 20 8 20 0 20-8 0-1-4-15-8-29-22-57t-46-56-69-27q-47 0-68 27t-21 56q0 19 36 120t37 152q0 59-44 59h-5q-86 0-145-101l-7-12-33-134Q156 26 151 16q-13-27-43-27-13 0-21 6T76 7t-2 10q0 13 38 163t40 163q1 5 1 23 0 39-24 39-38 0-63-100-6-20-6-21-2-6-19-6H27q-6 6-6 9z"/><path id="d" stroke-width="1" d="M213 578l-13-5q-14-5-40-10t-58-7H83v46h19q47 2 87 15t56 24 28 22q2 3 12 3 9 0 17-6V361l1-300q7-7 12-9t24-4 62-2h26V0h-11q-21 3-159 3-136 0-157-3H88v46h64q16 0 25 1t16 3 8 2 6 5 6 4v517z"/><path id="e" stroke-width="1" d="M56 237v13l14 20h299v150l1 150q10 13 19 13 13 0 20-15V270h298q15-8 15-20t-15-20H409V-68q-8-14-18-14h-4q-12 0-18 14v298H70q-14 7-14 20z"/><path id="f" stroke-width="1" d="M109 429q-27 0-43 18t-16 44q0 71 53 123t132 52q91 0 152-56t62-145q0-43-20-82t-48-68-80-74q-36-31-100-92l-59-56 76-1q157 0 167 5 7 2 24 89v3h40v-3q-1-3-13-91T421 3V0H50v31q0 7 6 15t30 35q29 32 50 56 9 10 34 37t34 37 29 33 28 34 23 30 21 32 15 29 13 32 7 30 3 33q0 63-34 109t-97 46q-33 0-58-17t-35-33-10-19q0-1 5-1 18 0 37-14t19-46q0-25-16-42t-45-18z"/><path id="g" stroke-width="1" d="M127 463q-27 0-42 17t-16 44q0 55 48 98t116 43q35 0 44-1 74-12 113-53t40-89q0-52-34-101t-94-71l-3-2q0-1 9-3t29-9 38-21q82-53 82-140 0-79-62-138T238-22q-80 0-138 43T42 130q0 28 18 45t45 18q28 0 46-18t18-45q0-11-3-20t-7-16-11-12-12-8-10-4-8-3l-4-1q51-45 124-45 55 0 83 53 17 33 17 101v20q0 95-64 127-15 6-61 7l-42 1-3 2q-2 3-2 16 0 18 8 18 28 0 58 5 34 5 62 42t28 112v8q0 57-35 79-22 14-47 14-32 0-59-11t-38-23-11-12h3q3-1 8-2t10-5 12-7 10-11 8-15 3-20q0-22-14-39t-45-18z"/><path id="h" stroke-width="1" d="M78 250q0 24 17 42t43 18q24 0 42-16t19-43q0-25-17-43t-43-18-43 17-18 43zm447 0q0 24 17 42t43 18q24 0 42-16t19-43q0-25-17-43t-43-18-43 17-18 43zm447 0q0 24 17 42t43 18q24 0 42-16t19-43q0-25-17-43t-43-18-43 17-18 43z"/><path id="i" stroke-width="1" d="M60 749l4 1h22l28-24q94-85 137-212t43-264q0-68-10-131T261 12t-37-88-38-67-41-51-32-33-23-19l-4-4H63q-3 0-5 3t-3 9q1 1 11 13Q221-64 221 250T66 725q-10 12-11 13 0 8 5 11z"/></defs><g fill="currentColor" stroke="currentColor" stroke-width="0" transform="scale(1 -1)"><use xlink:href="#a"/><use x="1056" xlink:href="#b"/><g transform="translate(1445)"><use xlink:href="#c"/><use x="849" y="-213" transform="scale(.707)" xlink:href="#d"/></g><use x="2722" xlink:href="#e"/><g transform="translate(3723)"><use xlink:href="#c"/><use x="849" y="-213" transform="scale(.707)" xlink:href="#f"/></g><use x="4999" xlink:href="#e"/><g transform="translate(6000)"><use xlink:href="#c"/><use x="849" y="-213" transform="scale(.707)" xlink:href="#g"/></g><use x="7277" xlink:href="#e"/><use x="8277" xlink:href="#h"/><use x="9450" xlink:href="#i"/><use x="10062" xlink:href="#e"/><use x="11062" xlink:href="#b"/><g transform="translate(11452)"><use xlink:href="#c"/><use x="849" y="-213" transform="scale(.707)" xlink:href="#f"/></g><use x="12728" xlink:href="#e"/><g transform="translate(13729)"><use xlink:href="#c"/><use x="849" y="-213" transform="scale(.707)" xlink:href="#g"/></g><use x="15006" xlink:href="#e"/><use x="16006" xlink:href="#h"/><use x="17179" xlink:href="#i"/><use x="17791" xlink:href="#e"/><use x="18791" xlink:href="#b"/><g transform="translate(19181)"><use xlink:href="#c"/><use x="849" y="-213" transform="scale(.707)" xlink:href="#g"/></g><use x="20458" xlink:href="#e"/><use x="21458" xlink:href="#h"/><use x="22631" xlink:href="#i"/><use x="23242" xlink:href="#e"/><use x="24243" xlink:href="#h"/></g></svg>

<?xml version="1.0" encoding="UTF-8" standalone="no" ?>
<svg xmlns="http://www.w3.org/2000/svg" width="39.159ex" height="5.43ex" viewBox="0 -1450 17308.2 2400" xmlns:xlink="http://www.w3.org/1999/xlink" aria-hidden="true" style=""><defs><path id="MJX-18-TEX-N-3D" d="M56 347Q56 360 70 367H707Q722 359 722 347Q722 336 708 328L390 327H72Q56 332 56 347ZM56 153Q56 168 72 173H708Q722 163 722 153Q722 140 707 133H70Q56 140 56 153Z"></path><path id="MJX-18-TEX-N-28" d="M94 250Q94 319 104 381T127 488T164 576T202 643T244 695T277 729T302 750H315H319Q333 750 333 741Q333 738 316 720T275 667T226 581T184 443T167 250T184 58T225 -81T274 -167T316 -220T333 -241Q333 -250 318 -250H315H302L274 -226Q180 -141 137 -14T94 250Z"></path><path id="MJX-18-TEX-I-1D45B" d="M21 287Q22 293 24 303T36 341T56 388T89 425T135 442Q171 442 195 424T225 390T231 369Q231 367 232 367L243 378Q304 442 382 442Q436 442 469 415T503 336T465 179T427 52Q427 26 444 26Q450 26 453 27Q482 32 505 65T540 145Q542 153 560 153Q580 153 580 145Q580 144 576 130Q568 101 554 73T508 17T439 -10Q392 -10 371 17T350 73Q350 92 386 193T423 345Q423 404 379 404H374Q288 404 229 303L222 291L189 157Q156 26 151 16Q138 -11 108 -11Q95 -11 87 -5T76 7T74 17Q74 30 112 180T152 343Q153 348 153 366Q153 405 129 405Q91 405 66 305Q60 285 60 284Q58 278 41 278H27Q21 284 21 287Z"></path><path id="MJX-18-TEX-N-31" d="M213 578L200 573Q186 568 160 563T102 556H83V602H102Q149 604 189 617T245 641T273 663Q275 666 285 666Q294 666 302 660V361L303 61Q310 54 315 52T339 48T401 46H427V0H416Q395 3 257 3Q121 3 100 0H88V46H114Q136 46 152 46T177 47T193 50T201 52T207 57T213 61V578Z"></path><path id="MJX-18-TEX-N-2B" d="M56 237T56 250T70 270H369V420L370 570Q380 583 389 583Q402 583 409 568V270H707Q722 262 722 250T707 230H409V-68Q401 -82 391 -82H389H387Q375 -82 369 -68V230H70Q56 237 56 250Z"></path><path id="MJX-18-TEX-N-32" d="M109 429Q82 429 66 447T50 491Q50 562 103 614T235 666Q326 666 387 610T449 465Q449 422 429 383T381 315T301 241Q265 210 201 149L142 93L218 92Q375 92 385 97Q392 99 409 186V189H449V186Q448 183 436 95T421 3V0H50V19V31Q50 38 56 46T86 81Q115 113 136 137Q145 147 170 174T204 211T233 244T261 278T284 308T305 340T320 369T333 401T340 431T343 464Q343 527 309 573T212 619Q179 619 154 602T119 569T109 550Q109 549 114 549Q132 549 151 535T170 489Q170 464 154 447T109 429Z"></path><path id="MJX-18-TEX-N-33" d="M127 463Q100 463 85 480T69 524Q69 579 117 622T233 665Q268 665 277 664Q351 652 390 611T430 522Q430 470 396 421T302 350L299 348Q299 347 308 345T337 336T375 315Q457 262 457 175Q457 96 395 37T238 -22Q158 -22 100 21T42 130Q42 158 60 175T105 193Q133 193 151 175T169 130Q169 119 166 110T159 94T148 82T136 74T126 70T118 67L114 66Q165 21 238 21Q293 21 321 74Q338 107 338 175V195Q338 290 274 322Q259 328 213 329L171 330L168 332Q166 335 166 348Q166 366 174 366Q202 366 232 371Q266 376 294 413T322 525V533Q322 590 287 612Q265 626 240 626Q208 626 181 615T143 592T132 580H135Q138 579 143 578T153 573T165 566T175 555T183 540T186 520Q186 498 172 481T127 463Z"></path><path id="MJX-18-TEX-N-2026" d="M78 60Q78 84 95 102T138 120Q162 120 180 104T199 61Q199 36 182 18T139 0T96 17T78 60ZM525 60Q525 84 542 102T585 120Q609 120 627 104T646 61Q646 36 629 18T586 0T543 17T525 60ZM972 60Q972 84 989 102T1032 120Q1056 120 1074 104T1093 61Q1093 36 1076 18T1033 0T990 17T972 60Z"></path><path id="MJX-18-TEX-N-29" d="M60 749L64 750Q69 750 74 750H86L114 726Q208 641 251 514T294 250Q294 182 284 119T261 12T224 -76T186 -143T145 -194T113 -227T90 -246Q87 -249 86 -250H74Q66 -250 63 -250T58 -247T55 -238Q56 -237 66 -225Q221 -64 221 250T66 725Q56 737 55 738Q55 746 60 749Z"></path></defs><g stroke="currentColor" fill="currentColor" stroke-width="0" transform="matrix(1 0 0 -1 0 0)"><g data-mml-node="math"><g data-mml-node="mtable"><g data-mml-node="mtr" transform="translate(0, 700)"><g data-mml-node="mtd"><g data-mml-node="mo"><use xlink:href="#MJX-18-TEX-N-3D"></use></g><g data-mml-node="mo" transform="translate(1055.8, 0)"><use xlink:href="#MJX-18-TEX-N-28"></use></g><g data-mml-node="msub" transform="translate(1444.8, 0)"><g data-mml-node="mi"><use xlink:href="#MJX-18-TEX-I-1D45B"></use></g><g data-mml-node="mn" transform="translate(600, -150) scale(0.707)"><use xlink:href="#MJX-18-TEX-N-31"></use></g></g><g data-mml-node="mo" transform="translate(2670.6, 0)"><use xlink:href="#MJX-18-TEX-N-2B"></use></g><g data-mml-node="msub" transform="translate(3670.8, 0)"><g data-mml-node="mi"><use xlink:href="#MJX-18-TEX-I-1D45B"></use></g><g data-mml-node="mn" transform="translate(600, -150) scale(0.707)"><use xlink:href="#MJX-18-TEX-N-32"></use></g></g><g data-mml-node="mo" transform="translate(4896.6, 0)"><use xlink:href="#MJX-18-TEX-N-2B"></use></g><g data-mml-node="msub" transform="translate(5896.8, 0)"><g data-mml-node="mi"><use xlink:href="#MJX-18-TEX-I-1D45B"></use></g><g data-mml-node="mn" transform="translate(600, -150) scale(0.707)"><use xlink:href="#MJX-18-TEX-N-33"></use></g></g><g data-mml-node="mo" transform="translate(7122.5, 0)"><use xlink:href="#MJX-18-TEX-N-2B"></use></g><g data-mml-node="mo" transform="translate(8122.8, 0)"><use xlink:href="#MJX-18-TEX-N-2026"></use></g><g data-mml-node="mo" transform="translate(9294.8, 0)"><use xlink:href="#MJX-18-TEX-N-29"></use></g><g data-mml-node="mo" transform="translate(9906, 0)"><use xlink:href="#MJX-18-TEX-N-2B"></use></g><g data-mml-node="mo" transform="translate(10906.2, 0)"><use xlink:href="#MJX-18-TEX-N-28"></use></g><g data-mml-node="msub" transform="translate(11295.2, 0)"><g data-mml-node="mi"><use xlink:href="#MJX-18-TEX-I-1D45B"></use></g><g data-mml-node="mn" transform="translate(600, -150) scale(0.707)"><use xlink:href="#MJX-18-TEX-N-32"></use></g></g><g data-mml-node="mo" transform="translate(12521, 0)"><use xlink:href="#MJX-18-TEX-N-2B"></use></g><g data-mml-node="msub" transform="translate(13521.2, 0)"><g data-mml-node="mi"><use xlink:href="#MJX-18-TEX-I-1D45B"></use></g><g data-mml-node="mn" transform="translate(600, -150) scale(0.707)"><use xlink:href="#MJX-18-TEX-N-33"></use></g></g><g data-mml-node="mo" transform="translate(14747, 0)"><use xlink:href="#MJX-18-TEX-N-2B"></use></g><g data-mml-node="mo" transform="translate(15747.2, 0)"><use xlink:href="#MJX-18-TEX-N-2026"></use></g><g data-mml-node="mo" transform="translate(16919.2, 0)"><use xlink:href="#MJX-18-TEX-N-29"></use></g></g></g><g data-mml-node="mtr" transform="translate(0, -700)"><g data-mml-node="mtd"><g data-mml-node="mo"><use xlink:href="#MJX-18-TEX-N-2B"></use></g><g data-mml-node="mo" transform="translate(778, 0)"><use xlink:href="#MJX-18-TEX-N-28"></use></g><g data-mml-node="msub" transform="translate(1167, 0)"><g data-mml-node="mi"><use xlink:href="#MJX-18-TEX-I-1D45B"></use></g><g data-mml-node="mn" transform="translate(600, -150) scale(0.707)"><use xlink:href="#MJX-18-TEX-N-33"></use></g></g><g data-mml-node="mo" transform="translate(2392.8, 0)"><use xlink:href="#MJX-18-TEX-N-2B"></use></g><g data-mml-node="mo" transform="translate(3393, 0)"><use xlink:href="#MJX-18-TEX-N-2026"></use></g><g data-mml-node="mo" transform="translate(4565, 0)"><use xlink:href="#MJX-18-TEX-N-29"></use></g><g data-mml-node="mo" transform="translate(5176.2, 0)"><use xlink:href="#MJX-18-TEX-N-2B"></use></g><g data-mml-node="mo" transform="translate(6176.4, 0)"><use xlink:href="#MJX-18-TEX-N-2026"></use></g></g></g></g></g></g></svg>
